!!!!SEGMENT: pl-wn--sd-xvi-o-285_anonim--kancjonal-zamoyskich-piesn-przy-pogrzebie-czlowieka-krzescianskiego-nuz-my-wierni-krzescianie.krn
!!!cenid: 15xx:840
!!!COM: Anonim
!!!COM-rismID: pe30004985
!!!CDT:
!!!CNT:
!!!GTL: Kancjonał Zamoyskich
!!!OTL: Pieśń przy pogrzebie człowieka krześciańskiego/Nuż my wierni krześcianie
!!!PDT: 1558
!!!AGN:
!!!SMS-siglum: PL-Wn
!!!SMS-shelfmark: SD XVI.O.285
!!!SMS-shelfwork: G
!!!SMS-variant:
!!!SMS-altvar:
!!!NIFC-rismSourceID: 990072144
!!!NIFC-islandoraID:
!!!URL-pdf-islandora:
!!!URL-scan: https://polona.pl/item/piesn-przy-pogrzebie-czlowieka-krzescianskiego-przylozon-tesz-iest-psalm-pierwssy,MTE3MTgyNQ/3 @EN{Scan on Polona} @PL{Skany w portalu Polona}
!!!ONB-nifc: UWAGA: proszę zapisywać tylko teksty występujące bezpośrednio pod nutami
!!!AIN: 1 soprn 1 tenor
!!!key: d
**kern	**text	**mod-text	**kern	**text	**mod-text
*part2	*part2	*part2	*part1	*part1	*part1
*staff2	*staff2	*staff2	*staff1	*staff1	*staff1
*I"TENOR.	*	*	*I"CANTVS.	*	*
*mI"Tenore	*	*	*mI"Soprano	*	*
*I'T	*	*	*I'S	*	*
*Itenor	*	*	*Isoprn	*	*
*ICvox	*	*	*ICvox	*	*
*clefC3	*	*	*clefC1	*	*
*mclefGv2	*	*	*mclefG2	*	*
*k[]	*	*	*k[]	*	*
*d:	*	*	*d:	*	*
*M2/1	*	*	*M2/1	*	*
*met(C|)	*	*	*met(C|)	*	*
*mmet(c|)	*	*	*mmet(c|)	*	*
=1-	=1-	=1-	=1-	=1-	=1-
!LO:TX:t=P:problem=błędny zapis klucza - w źródle C4	!	!	!LO:TX:t=P:problem=przy kluczu zbędny bemol	!	!
1A	Nuſz	Nuż	1a	Nuſz	Nuż
1B	my	my	1g	my	my
=2-	=2-	=2-	=2-	=2-	=2-
1A	wie-	wier-	1f	wier-	wier-
1G	-ni	-ni	1e	-ni	-ni
=3-	=3-	=3-	=3-	=3-	=3-
1A	krze-	krze-	1f	krze.-	krze-
1B	ſci-	-ści-	1g	-[ſci-	-ści-
=4-	=4-	=4-	=4-	=4-	=4-
1c	-á.-	-a-	1a	-á-	-a-
1A	-[nie]	-nie	1f	-nie]	-nie
=5-	=5-	=5-	=5-	=5-	=5-
1A	przes	przez	1a	przes	przez
1B	ża-	ża-	1g	żá-	ża-
=6-	=6-	=6-	=6-	=6-	=6-
1c	-ł.[o-	-ło-	1e	-ło-	-ło-
1d	ſne]	ſne	1f	ſne	ſne
=7-	=7-	=7-	=7-	=7-	=7-
1c	ro.[z-	roz-	1e	roz-	roz-
1A	-my-	-my-	2e/	.	-my-
.	.	.	1a\	.	-śla-
=8-	=8-	=8-	=8-	=8-	=8-
1B	-ſla-	-śla-	.	.	.
!	!	!	!LO:SIC:s=2g#i	!	!
.	.	.	2g/	-my-	.
!LO:SIC:v:t=custos A	!	!	!LO:SIC:v:t=custos f	!	!
1c	-nie]	-nie	1a	-ſlá.-	-nie
=9-	=9-	=9-	=9-	=9-	=9-
!LO:LB:g=original	!	!	!LO:LB:g=original	!	!
!LO:TX:t=P:problem=przy kluczu zbędny bemol	!	!	!	!	!
1A	ſmier-	śmier-	1f	-[nie]	śmier-
1B	ći	-ci	1f	ſmier-	-ci
=10-	=10-	=10-	=10-	=10-	=10-
1B	czło.-	czło-	1g	-ći	czło-
1c	-[wie-	-wie-	1a	czło-	-wie-
=11-	=11-	=11-	=11-	=11-	=11-
1B	-ka]	-ka	2g/	-wie.-	-ka
.	.	.	2.g/	-[ka]	grzesz-
1A	grze-	grzesz-	.	.	.
.	.	.	4f/	grze.-	.
.	.	.	1f/	-[ſſne]-	-ne-
=12-	=12-	=12-	=12-	=12-	=12-
1G	-ſſ.[ne-	-ne-	.	.	.
.	.	.	2e/	.	.
1F	-go]	-go	1f	-[go]	-go
=13-	=13-	=13-	=13-	=13-	=13-
1B	bądz-	bądź-	1g	bądz.-	bądź-
1c	-myſz	-my	1a	-[my]	-my
=14-	=14-	=14-	=14-	=14-	=14-
1B	ſer-	ser-	1b	ſer.-	ser-
1A	-cá	-ca	1cc	.	-ca
=15-	=15-	=15-	=15-	=15-	=15-
1E	na.-	na-	2b\	[ca]	na-
.	.	.	2.b\	n.[a-	-boż-
1A	-[boż-	-boż-	.	.	.
.	.	.	4a\	-boż-	.
.	.	.	1a\	-ne-	-ne-
=16-	=16-	=16-	=16-	=16-	=16-
1B	-ne-	-ne-	.	.	.
!	!	!	!LO:SIC:s=2g#i	!	!
.	.	.	2g	.	.
!LO:MO:mod=!LO&colon;N&colon;vis=0	!	!	!LO:MO:mod=!LO&colon;N&colon;vis=0	!	!
!null	!	!	!null	!	!
1Al/	-go]	-go.	1al	-go	-go.
==	==	==	==	==	==
*-	*-	*-	*-	*-	*-
!!!system-decoration: [(*)]
!!LO:MO:ori
!!!RDF**kern: l = terminal long
!!LO:MO:mod
!! !!!RDF**kern: i = editorial accidental
!!LO:MO:end
!!!filter-modern: shed -e "s/TX(.*):t=P:/tx$1:t=P:/LG" | shed -e "s/^custos:/Xcustos:/I" | sic -sq | modori -m | autostem -r | tie -s | humtr -p | shed -e "s/-//B"
!!!ENC: Marta Opryszak
!!!END: 2022-05-18
!!!ENC: Krzysztof Stępień
!!!END: 2022-06-02
!!!ENC-modern: Andrzej Kubiczek
!!!END-modern: 2022-07-25
!!!YEC: Copyright 2022 Narodowy Instytut Fryderyka Chopina (https://polishscores.org)
!!!YEM: Licence CC BY 4.0 (https://creativecommons.org/licenses/by/4.0)
